src/assets/img/logo.svg

<svg width="185" height="32" fill="none" xmlns="http://www.w3.org/2000/svg"><path d="M121.09 28.336c2.352 0 4.392-1.248 5.424-3.12l-2.688-1.536c-.48.984-1.512 1.584-2.76 1.584-1.848 0-3.216-1.368-3.216-3.264 0-1.92 1.368-3.288 3.216-3.288 1.224 0 2.256.624 2.736 1.608l2.664-1.56c-.984-1.848-3.024-3.096-5.376-3.096-3.648 0-6.336 2.76-6.336 6.336 0 3.576 2.688 6.336 6.336 6.336ZM137.084 16v1.416c-.864-1.08-2.16-1.752-3.912-1.752-3.192 0-5.832 2.76-5.832 6.336 0 3.576 2.64 6.336 5.832 6.336 1.752 0 3.048-.672 3.912-1.752V28h3.096V16h-3.096Zm-3.336 9.384c-1.896 0-3.312-1.368-3.312-3.384s1.416-3.384 3.312-3.384c1.92 0 3.336 1.368 3.336 3.384s-1.416 3.384-3.336 3.384ZM149.851 18.976V16h-2.712v-3.36l-3.096.936V16h-2.088v2.976h2.088v4.992c0 3.24 1.464 4.512 5.808 4.032v-2.808c-1.776.096-2.712.072-2.712-1.224v-4.992h2.712ZM153.57 14.56c1.056 0 1.92-.864 1.92-1.896s-.864-1.92-1.92-1.92c-1.032 0-1.896.888-1.896 1.92s.864 1.896 1.896 1.896ZM152.034 28h3.096V16h-3.096v12ZM163.676 28.336c3.528 0 6.36-2.76 6.36-6.336 0-3.576-2.832-6.336-6.36-6.336-3.528 0-6.336 2.76-6.336 6.336 0 3.576 2.808 6.336 6.336 6.336Zm0-3.024c-1.824 0-3.24-1.368-3.24-3.312 0-1.944 1.416-3.312 3.24-3.312 1.848 0 3.264 1.368 3.264 3.312 0 1.944-1.416 3.312-3.264 3.312ZM178.886 15.664c-1.608 0-2.856.6-3.576 1.68V16h-3.096v12h3.096v-6.48c0-2.088 1.128-2.976 2.64-2.976 1.392 0 2.376.84 2.376 2.472V28h3.096v-7.368c0-3.192-1.992-4.968-4.536-4.968Z" fill="#A3BFFA"/><path d="M61.0634 28.0001h3.768l3.144-11.088 3.168 11.088h3.768l4.704-16.8h-3.48l-3.216 12.456-3.528-12.456h-2.832l-3.504 12.456-3.216-12.456h-3.48l4.704 16.8ZM85.6742 28.3361c3.5281 0 6.36-2.76 6.36-6.336 0-3.576-2.8319-6.336-6.36-6.336-3.528 0-6.336 2.76-6.336 6.336 0 3.576 2.808 6.336 6.336 6.336Zm0-3.024c-1.8239 0-3.24-1.368-3.24-3.312 0-1.944 1.4161-3.312 3.24-3.312 1.848 0 3.2641 1.368 3.2641 3.312 0 1.944-1.4161 3.312-3.2641 3.312ZM97.3083 18.0641v-2.064h-3.0961v12h3.0961v-5.736c0-2.52 2.0399-3.24 3.6477-3.048v-3.456c-1.5118 0-3.0237.672-3.6477 2.304ZM113.831 28.0001l-4.968-6.072 4.824-5.928h-3.696l-4.128 5.28v-10.08h-3.096v16.8h3.096v-5.448l4.368 5.448h3.6Z" fill="#fff"/><path fill-rule="evenodd" clip-rule="evenodd" d="m43.9111 12.6044-7.6982-4.44475V28.8051h9v2H1.21289v-2h4V16.0858l-3.72782.9319L1 15.0774l21.0896-5.27235h3.1223c-.3446.81745-.5736 1.67935-.6803 2.55865l-.4821 3.9749 5.1634-2.9812v15.4477h5V8.16087l-7.6963 4.44363c.2217-1.8277 1.1113-3.55593 2.5654-4.79946h-4.1191c1.3682-1.82166 3.5469-3 6.001-3 .2168 0 .4326.00927.6445.02746l-5.5918-3.22864c2.0957-.893428 4.5713-.824702 6.6963.40223 1.0391.59973 1.8809 1.41064 2.501 2.34716.6201-.93652 1.4609-1.74743 2.5-2.34716 2.125-1.226932 4.6015-1.295658 6.6972-.40223L38.8184 4.8325c.2128-.01819.4287-.02746.6464-.02746 2.4532 0 4.6319 1.17834 6 3h-4.1201c1.4551 1.24353 2.3448 2.97176 2.5664 4.79936ZM25.2129 28.8051v-10h-6v10h6Zm-11-8c0 1.1045-.8954 2-2 2s-2-.8955-2-2c0-1.1046.8954-2 2-2s2 .8954 2 2Z" fill="#A3BFFA"/></svg>

<svg width="185" height="32" viewBox="0 0 185 32" fill="none" xmlns="http://www.w3.org/2000/svg">
<path d="M121.09 28.336C123.442 28.336 125.482 27.088 126.514 25.216L123.826 23.68C123.346 24.664 122.314 25.264 121.066 25.264C119.218 25.264 117.85 23.896 117.85 22C117.85 20.08 119.218 18.712 121.066 18.712C122.29 18.712 123.322 19.336 123.802 20.32L126.466 18.76C125.482 16.912 123.442 15.664 121.09 15.664C117.442 15.664 114.754 18.424 114.754 22C114.754 25.576 117.442 28.336 121.09 28.336Z" fill="#A3BFFA"/>
<path d="M137.084 16V17.416C136.22 16.336 134.924 15.664 133.172 15.664C129.98 15.664 127.34 18.424 127.34 22C127.34 25.576 129.98 28.336 133.172 28.336C134.924 28.336 136.22 27.664 137.084 26.584V28H140.18V16H137.084ZM133.748 25.384C131.852 25.384 130.436 24.016 130.436 22C130.436 19.984 131.852 18.616 133.748 18.616C135.668 18.616 137.084 19.984 137.084 22C137.084 24.016 135.668 25.384 133.748 25.384Z" fill="#A3BFFA"/>
<path d="M149.851 18.976V16H147.139V12.64L144.043 13.576V16H141.955V18.976H144.043V23.968C144.043 27.208 145.507 28.48 149.851 28V25.192C148.075 25.288 147.139 25.264 147.139 23.968V18.976H149.851Z" fill="#A3BFFA"/>
<path d="M153.57 14.56C154.626 14.56 155.49 13.696 155.49 12.664C155.49 11.632 154.626 10.744 153.57 10.744C152.538 10.744 151.674 11.632 151.674 12.664C151.674 13.696 152.538 14.56 153.57 14.56ZM152.034 28H155.13V16H152.034V28Z" fill="#A3BFFA"/>
<path d="M163.676 28.336C167.204 28.336 170.036 25.576 170.036 22C170.036 18.424 167.204 15.664 163.676 15.664C160.148 15.664 157.34 18.424 157.34 22C157.34 25.576 160.148 28.336 163.676 28.336ZM163.676 25.312C161.852 25.312 160.436 23.944 160.436 22C160.436 20.056 161.852 18.688 163.676 18.688C165.524 18.688 166.94 20.056 166.94 22C166.94 23.944 165.524 25.312 163.676 25.312Z" fill="#A3BFFA"/>
<path d="M178.886 15.664C177.278 15.664 176.03 16.264 175.31 17.344V16H172.214V28H175.31V21.52C175.31 19.432 176.438 18.544 177.95 18.544C179.342 18.544 180.326 19.384 180.326 21.016V28H183.422V20.632C183.422 17.44 181.43 15.664 178.886 15.664Z" fill="#A3BFFA"/>
<path d="M61.0634 28.0001H64.8314L67.9754 16.9121L71.1434 28.0001H74.9114L79.6154 11.2001H76.1354L72.9194 23.6561L69.3914 11.2001H66.5594L63.0554 23.6561L59.8394 11.2001H56.3594L61.0634 28.0001Z" fill="white"/>
<path d="M85.6742 28.3361C89.2023 28.3361 92.0342 25.5761 92.0342 22.0001C92.0342 18.4241 89.2023 15.6641 85.6742 15.6641C82.1462 15.6641 79.3382 18.4241 79.3382 22.0001C79.3382 25.5761 82.1462 28.3361 85.6742 28.3361ZM85.6742 25.3121C83.8503 25.3121 82.4342 23.9441 82.4342 22.0001C82.4342 20.0561 83.8503 18.6881 85.6742 18.6881C87.5222 18.6881 88.9383 20.0561 88.9383 22.0001C88.9383 23.9441 87.5222 25.3121 85.6742 25.3121Z" fill="white"/>
<path d="M97.3083 18.0641V16.0001H94.2122V28.0001H97.3083V22.2641C97.3083 19.7441 99.3482 19.0241 100.956 19.2161V15.7601C99.4442 15.7601 97.9323 16.4321 97.3083 18.0641Z" fill="white"/>
<path d="M113.831 28.0001L108.863 21.9281L113.687 16.0001H109.991L105.863 21.2801V11.2001H102.767V28.0001H105.863V22.5521L110.231 28.0001H113.831Z" fill="white"/>
<path fill-rule="evenodd" clip-rule="evenodd" d="M43.9111 12.6044L36.2129 8.15965V28.8051H45.2129V30.8051H1.21289V28.8051H5.21289V16.0858L1.48507 17.0177L1 15.0774L22.0896 9.80505H25.2119C24.8673 10.6225 24.6383 11.4844 24.5316 12.3637L24.0495 16.3386L29.2129 13.3574V28.8051H34.2129V8.16087L26.5166 12.6045C26.7383 10.7768 27.6279 9.04857 29.082 7.80504H24.9629C26.3311 5.98338 28.5098 4.80504 30.9639 4.80504C31.1807 4.80504 31.3965 4.81431 31.6084 4.8325L26.0166 1.60386C28.1123 0.710432 30.5879 0.779158 32.7129 2.00609C33.752 2.60582 34.5938 3.41673 35.2139 4.35325C35.834 3.41673 36.6748 2.60582 37.7139 2.00609C39.8389 0.779158 42.3154 0.710432 44.4111 1.60386L38.8184 4.8325C39.0312 4.81431 39.2471 4.80504 39.4648 4.80504C41.918 4.80504 44.0967 5.98338 45.4648 7.80504H41.3447C42.7998 9.04857 43.6895 10.7768 43.9111 12.6044ZM25.2129 28.8051V18.8051H19.2129V28.8051H25.2129ZM14.2129 20.8051C14.2129 21.9096 13.3175 22.8051 12.2129 22.8051C11.1083 22.8051 10.2129 21.9096 10.2129 20.8051C10.2129 19.7005 11.1083 18.8051 12.2129 18.8051C13.3175 18.8051 14.2129 19.7005 14.2129 20.8051Z" fill="#A3BFFA"/>
</svg>
